X: 1
T: Ymdaith Yr Hen Gymry
T: March of the ancient Welsh
C: anon. barndance
S: From Jean-Francois Moine on abcusers 2018-1-19
M: 4/4
L: 1/8
%Q: 1/4=84
K: D
A, |\
"D"D2 DD "F#m"A,>B, CA, | "D"DD C/D/E/F/ "G"G2 "A7"AG |\
"D"FD DD "F#m"A,>B, CA, | "D"DD "A7"C/D/E/G/ "D"FD D :|
|: F/G/ |\
"D"A2 AF/G/ A2 AE/F/ | "G"G2 GE/F/ "A7"G2 A/G/F/E/ |\
"D"FD DD "F#m"A,>B, CA, | "D"DD "A7"C/D/E/G/ "D"FD D :|
